X:1
T:Bamboo Rain
C:Tony Koop / Heifer Zephyr (2026)
S:Public domain or original as noted in notes.md
M:4/4
L:1/8
Q:1/4=50
K:Dmin
H:D minor pentatonic starter arrangement for Shakuhachi (D). Refs #1
D4 F2 G2 | A4 G2 F2 | D4 F2 A2 | c6 A2 |
G4 F2 D2 | F4 G2 A2 | D6 z2 | D8 |
A4 c2 d2 | c4 A2 G2 | F4 G2 A2 | c6 A2 |
G4 F2 D2 | F4 A2 G2 | D6 z2 | D8 |]
